!!!SOCIAL_FUNCTION:	songs of the drum religion
!!!PDT:	1932
!!!OTL: No_108_Song_with_Gift_of_a_Pony.krn
!!!REG: Wisconsin
!!!LANG: Non-Tone
!!!LING_GROUP: Algonquin
**kern
*staff1
=1-
*clefF4
*k[b-e-a-]
*M3/4
8c\L
8c\J
8.c\L
16B-\Jk
4B-\
=2
8B-\L
8B-\J
8.B-\L
16B-\Jk
8B-\
8r
=3
8B-\L
8B-\J
8.A-\L
16F\Jk
4E-\
=4
8F\L
8E-\J
8.C/L
16BB-/Jk
8BB-/L
8BB-/J
=5||
*M2/4
4BB-/
8BB-/L
8BB-/J
=6
8.BB-/L
16BB-/Jk
8BB-/L
8BB-/J
=7||
*M3/4
2BB-/
8BB-/
8r
=8
8B-\L
8B-\J
8.B-\L
16B-\Jk
4B-\
=9
8B-\L
8B-\J
8.A-\L
16F\Jk
4E-\
=10
8F\L
8E-\J
8.C/L
16BB-/Jk
8BB-/L
8BB-/J
=11||
*M2/4
4BB-/
8BB-/L
8BB-/J
=12
8.BB-/L
16BB-/Jk
8BB-/L
8BB-/J
=13||
*M3/4
2BB-/
8BB-/
8r
==
*-
